X:1
T:Étude op. 30 no 5
T:Étude op. 30 no 5
T:Joachim Andersen
C:Joachim Andersen
L:1/8
M:2/4
K:D
V:1 treble nm="Flûte" snm="Fl."
V:1
!f! .d(e/d/) (e/d/)(e/d/) | (a/f/e/d/ A/d/e/f/ | e)(b/a/) (b/a/)(b/a/) | %3
!>(! (b/a/g/e/ c/A/^G/=G/!>)! | F/)!p!(D/E/D/ E/D/E/D/) | .G/(D/E/D/) .A/(D/E/D/) | %6
"_cresc." .B/(d/e/d/) .A/(d/e/d/) | (G/d/)(B/d/) (A/d/)(G/d/) |!f! .F/(d/e/d/) (e/d/)(e/d/) | %9
 (a/f/e/d/ A/d/e/f/ |!<(! e/)(a/b/a/) (b/a/)(b/a/)!<)! |!ff! (e'/c'/b/a/ e/a/b/c'/ | %12
 d/)(a/b/a/) (b/a/)(b/a/) | .c/(a/b/a/) .B/(^g/a/g/) | .A/(A/B/A/) (c/A/)(d/A/) |1 %15
!>(! (e/A/)(g/A/) (f/A/)(e/.A/)!>)! :|2!>(! (e/A/)(f/A/) (^g/A/)(a/A/)!>)! |: %17
!mf! .=G/(A/B/A/) (B/A/)(B/A/) |!<(! (G/A/c/e/ g/a/c'/e'/!<)! |!f! d'/)(a/b/a/) (b/a/)(b/a/) | %20
 (^E/F/A/d/ f/a/d'/f'/ | g'/)(A/B/A/) (B/A/)(B/A/) | (a'/g'/e'/c'/ a/g/e/c/ | %23
 B/)(A/B/A/) (e/d/)(e/d/) |!>(! (g'/f'/d'/a/ f/d/A/F/!>)! |!mf! G/)(A/B/A/) (b/a/)(b/a/) | %26
!<(! (G/A/c/e/ g/a/c'/e'/!<)! |!f! d'/)(a/b/a/) (B/A/)(B/A/) | (^E/F/A/d/ f/a/d'/f'/ | %29
 e'/)(E/F/E/)"_cresc." (f/e/)(f/e/) |!ff! (d/e/c'/b/ ^g/e/d/B/ | A)(B/A/) (b/a/)(B/A/) |1 %32
!>(! (C/A/)(D/A/) (E/A/)(F/A/)!>)! :|2!>(! (d'/c'/)(B/A/) (f'/e'/)(B/A/)!>)! || %34
!f! .d(e/d/) ((e/d/))(e/d/) | (a/f/e/d/ A/d/e/f/ | e)(b/a/) (b/a/)(b/a/) | %37
!>(! (b/a/g/e/ c/A/^G/=G/!>)! |!p! F/)(D/E/D/) (E/D/)(E/D/) | .G/(D/E/D/) .A/(D/E/D/) | %40
 .B/(d/e/d/)"_cresc." .A/(d/e/d/) | (G/d/)(B/d/) (A/d/)(G/d/) |!f! F/(d/e/d/) (e/d/)(e/d/) | %43
 (a/f/e/d/ A/d/e/f/ |!<(! e/)(a/b/a/) (b/a/)(b/a/)!<)! |!ff! (e'/c'/b/a/ e/a/b/c'/ | %46
 d/)(a/b/a/) (b/a/)(b/a/) | .c/(a/b/a/) .B/(^g/a/g/) |!>(! .A/(A/B/A/) (c/A/)(d/A/) | %49
 (e/A/)(g/A/) (f/A/)(e/A/)!>)! |!f! .d(e/d/) (e/d/)(e/d/) | (a/f/e/d/ A/d/e/f/ | %52
 e)(b/a/) (b/a/)(b/a/) |!>(! (b/a/g/e/ c/A/^G/=G/!>)! |!p! F/)(D/E/D/ E/D/E/D/) | %55
 .G/(D/E/D/) .A/(D/E/D/) |"_cresc." .B/(d/e/d/) .A/(d/e/d/) | (G/d/)(B/d/) (A/d/)(G/d/) | %58
!f! .F/(d/e/d/) (e/d/)(e/d/) | (a/f/e/d/ A/d/e/f/ | ^G/)(e/f/e/)"_cresc." (f/e/)(f/e/) | %61
 (c'/b/^g/e/ d/e/g/b/ |!ff! c/)(a/b/a/) .d/(b/c'/b/) | .e/(c'/d'/c'/) .f/(d'/e'/d'/) | %64
 .a/(f'/g'/f'/) .g/(e'/f'/e'/) | .f/(d'/a/f/!ff! d) z |] %66

